X: 1
T: Mairi's Wedding
R: polka
M: 2/4
L: 1/8
K: Dmaj
f "A"|: "D"A>A AB | de f2 | "G"ed Bd | "A7"fe fa |
"D"A>A AB | de f2 | "G"ed BG | "A7"A2 A2 |
"D"a>a ab | ag f2 | "G"ed Bd | "A7"fe f<a |
"D"a>a ab | ag f2 | "G"ed BG |1 "A7"A2 A2 :|2 "A"AB/c/ d/e/f/g/ |]
"D"a>a ab | ag f2 | "G"ed Bd | "A7"fe f<a \
"D"A>A AB | de fg | "G"a>f "A7"fe | "D"d2 z2 |]


Tune 706	Setting 23561

